X:245
T: Billy Rush's Own
S: J. O'Brien: "Irish Folk Dance Music"
Z: B.Black
M: 6/8
L: 1/8
R: jig
K: A
F | FEF ECE | FAA BAB | cec fdB | cAA BAF |
FEF ECE | FAA BAB | cec BAB | cAA A2 :|
B | cee ecA | dcB cAA | BcB BAB | cec dcB |
cee ecA | dcB cAA |1 BcB BAB | cBA BAF :|
|2 EFE ECE | FAA A2 ||
W:
K:G %Transposed from A
E | EDE DB,D | EGG AGA | BdB ecA | BGG AGE |
EDE DB,D | EGG AGA | BdB AGA | BGG G2 :|
A |: Bdd dBG | cBA BGG | ABA AGA | BdB cBA |
Bdd dBG | cBA BGG |1 ABA AGA | BAG AGE :|
|2 DED DB,D | EGG G2 ||
